X: 3010
T: Down the Burn Davie
R: reel
B: John Walsh "Caledonian Country Dances"
S: http://javanese.imslp.info/files/imglnks/usimg/6/61/IMSLP173105-PMLP149069-caledoniancountr00ingl.pdf
Z: 2013 John Chambers <jc:trillian.mit.edu>
N: The 2nd phrase has initial repeat but no final repeat
M: C|
L: 1/8
K: G
% - - - - - - - - - - - - - - - - - - - - - - - - -
% Voice 1 has 4/8-bar staff/line lengths.
V: 1
G |\
D3E (GE)(GA) | {c}B2(AG) G2ga | (ba)(ge) (ge)(dB) | d2(AB) TA3d |\
(dB)(AG) (DE)(GA) | {c}B2AG g3d | (ef)(gd) (ga)(bd) | (cB)(AG) TG3 :|
|: b/a/ |\
g3a (ba)(ge) | (dB)(de) g3G | (AB)(ge) (cB)(AG) | c2Bc A3e |\
(dB)(AG) (DE)(GA) | {c}B2AG g3d | (ef)(gd) (ga)(bd) | cBAG G3 |]
% - - - - - - - - - - - - - - - - - - - - - - - - -
% Voice 2 preserves the original staff breaks.
V: 2 clef=bass middle=d
z |\
gabc' b3a | g2d2 B2d2 | G2z2 B2d2 | f2g2 dedc | B2c2 dcBA | G2A2
BABG | c2B2 A2G2 | A2d2 G3 :||: z | gGBd g2c2 | B2zc GABG | c2B2 A4 |
afgc dedc | B2c2 dcBA | G2A2 BABG | c2B2 A2G2 | A2d2 G3 |]
% - - - - - - - - - - - - - - - - - - - - - - - - -
%%begintext align
Lead up all and back .|
that again, the 1st Man moves to the 2d Wo. salute her, turn her about, and fall into their own Places,
the 1st Wo. and 2d Man do the same .|
The 1st Man and 2d Wo. go back to back, and fall into their own places,
the 1st Wo. and 2d Man do as much ..|
The two Men clap hands, and the two We. then turn all round single,
then clap hands with your own, and cast off into the 2d Cu. Place ..|
Do this to the last.
%%endtext
